svg/console.svg

<?xml version="1.0" encoding="UTF-8"?>
<svg xmlns="http://www.w3.org/2000/svg" xmlns:xlink="http://www.w3.org/1999/xlink" width="32" height="32" viewBox="0 0 32 32">
<path fill-rule="nonzero" fill="rgb(0%, 0%, 0%)" fill-opacity="1" d="M 1.820312 1.921875 C 0.816406 1.921875 0 2.734375 0 3.738281 L 0 6.398438 L 32 6.398438 L 32 3.738281 C 31.996094 2.734375 31.183594 1.921875 30.179688 1.921875 Z M 0 7.679688 L 0 29.441406 C 0 29.796875 0.289062 30.078125 0.640625 30.078125 L 31.359375 30.078125 C 31.714844 30.078125 32 29.796875 32 29.441406 L 32 7.679688 Z M 9.660156 12.78125 C 9.828125 12.773438 9.988281 12.839844 10.101562 12.960938 L 14.339844 17.320312 L 10 21.558594 C 9.882812 21.675781 9.722656 21.738281 9.558594 21.738281 C 9.386719 21.734375 9.222656 21.660156 9.101562 21.539062 C 8.984375 21.417969 8.914062 21.257812 8.914062 21.089844 C 8.914062 20.921875 8.984375 20.757812 9.101562 20.640625 L 12.539062 17.300781 L 9.199219 13.859375 C 9.015625 13.675781 8.960938 13.398438 9.0625 13.160156 C 9.164062 12.921875 9.402344 12.773438 9.660156 12.78125 M 14.71875 20.480469 L 23.039062 20.480469 C 23.210938 20.480469 23.371094 20.546875 23.492188 20.664062 C 23.742188 20.914062 23.742188 21.320312 23.492188 21.574219 C 23.371094 21.695312 23.207031 21.761719 23.039062 21.757812 L 14.71875 21.757812 C 14.390625 21.726562 14.140625 21.449219 14.140625 21.117188 C 14.140625 20.789062 14.390625 20.511719 14.71875 20.480469 M 14.71875 20.480469 "/>
</svg>

<svg role="img" viewBox="0 0 32 32" height="32" width="32" xmlns="http://www.w3.org/2000/svg"><path d="M1.82 1.922C.816 1.922 0 2.734 0 3.738v2.66h32v-2.66a1.821 1.821 0 0 0-1.82-1.816ZM0 7.68v21.76c0 .356.29.637.64.637h30.72c.355 0 .64-.281.64-.637V7.68Zm9.66 5.101a.567.567 0 0 1 .442.18l4.238 4.36L10 21.558a.624.624 0 0 1-.441.18.673.673 0 0 1-.457-.2.65.65 0 0 1-.188-.45c0-.167.07-.331.188-.448l3.437-3.34-3.34-3.442a.637.637 0 0 1-.136-.699.627.627 0 0 1 .597-.379m5.059 7.7h8.32c.172 0 .332.066.453.183.25.25.25.656 0 .91a.622.622 0 0 1-.453.184h-8.32a.641.641 0 0 1 0-1.278m0 0"/></svg>
